X:342
T:Free Radical Freylach, The
M:C|
C:© Paul Gitlitz, 2012
K:Gm
"D"DE^FA B^cBA|DE^FA B^cBA|"Gm"d^ccB "F"BAAG|!
"Eb"G^FFE "D"ED^CD|"Cm"CDEG "F"AGG^F|"Eb"EDD^C "D"D^FED|!
"D"de^fa b^c'ba|de^fa b^c'ba|"Gm"d'^c'c'b "F"baag| "Eb"g^ffe "D"ed^cd|!
"Cm"cdeg "Bb"agg^f|"Eb"edd^c "D"d^fed|"F"cBBA "D"AGG^F|"Eb"^FEED "D"DAFA||!
|:"D"d3c "Cm"c3B |"Bb"B3A "D" DA^FD|"Eb"ED^FD "Gm"GDAD|"D"^FAAG "Bb"GFED|!
"Cm"C^FGA "Eb"GFED|"F"c3B "D"AG^FD|"Cm"CDEG AGG^F|"Eb"EDD^C "D"D^FED:|]
